**kern	**silbe
*ICvox	*
=1	=1
*G:	*
*clefG2	*
1r	.
=2	=2
1r	.
=3	=3
1r	.
=4	=4
1r	.
=5	=5
1r	.
=6	=6
1r	.
=7	=7
1r	.
=8	=8
1r	.
=9	=9
1r	.
=10	=10
1r	.
=11	=11
1r	.
=12	=12
1r	.
=13	=13
1r	.
=14	=14
1r	.
=15	=15
1r	.
=16	=16
1r	.
=17	=17
4r	.
8r	.
8G	Well
8B	there
8B	was
4B	no
=18	=18
4c#	rea-
4A	-son
4A	to
8F#	be-
[8G	-lieve
=19	=19
4G]	_
8r	.
8G	she'd
4B	al-
4d	-ways
=20	=20
4.c#	be
4B	there
4A	_
8r	.
=21	=21
8r	.
8G	But
8G	if
8G	you
4B	don't
4d	put
=22	=22
4c#	fait
4A	in
4A	what
8F#	you
8F#	be-
=23	=23
8G	-lieve
4B	in
4r	.
8G	it's
12d	get-
12d	-ting
12d	you
=24	=24
4.e	no-
8c#	-where
8B	_
8A	_
4r	.
=25	=25
2r	.
4A	'Cos
4B	it
=26	=26
4d	hurts
4B	you
8A	ne-
8G	-ver
8E	let
[8B	go
=27	=27
2B]	_
4A	Don't
8B	look
[8e	down
=28	=28
8e]	_
4.d	_
8r	.
8D	just
8B	look
[8B	up
=29	=29
2B]	_
4A	'Cos
4B	she's
=30	=30
4d	al-
4B	-ways
8A	there
8G	_
8E	be-
[8B	-hind
=31	=31
4.B]	_
8B	you
8r	.
4r	.
[8e	just
=32	=32
8e]	_
8d	to
8B	re-
4d	-mind
4.d	you
=33	=33
4.B	Two
[8A	hearts
2A]	_
=34	=34
4.r	.
8D	be-
8G	-liev-
8G	-ing
4F#	in
=35	=35
2A	just
4.A	one
[8B	mind
=36	=36
2B]	_
6G	You
6A	know
6B	we're
=37	=37
4.B	two
[8A	hearts
2A]	_
=38	=38
2r	.
8G	Liv-
8G	-ing
4F#	in
=39	=39
2A	just
4.d	one
8B	mind
=40	=40
8A	_
4.G	_
2r	.
=41	=41
1r	.
=42	=42
1r	.
=43	=43
1r	.
=44	=44
1r	.
=45	=45
1r	.
=46	=46
1r	.
=47	=47
1r	.
=48	=48
1r	.
=49	=49
4r	.
8r	.
8G	Well
4B	there's
4B	no
=50	=50
4c#	ea-
4A	-sy
4A	way
4F#	to
=51	=51
4r	.
8r	.
8G	to
4B	un-
4d	-der-
=52	=52
4.c#	-stand
4B	it
4A	_
8r	.
=53	=53
4r	.
8G	there's
8G	so
8B	much
8B	of
4d	my
=54	=54
4c#	life
8B	in
4B	her
4.A	_
=55	=55
4r	.
8G	and
8G	it's
4B	like
4d	I'm
=56	=56
4.e	blind-
8c#	-ed
8B	_
8A	_
4r	.
=57	=57
2r	.
4A	And
4B	it
=58	=58
8d	teach-
8d	-es
8B	you
8B	to
8A	ne-
8G	-ver
8E	let
[8B	go
=59	=59
2B]	_
4A	There's
8B	so
[8e	much
=60	=60
8e]	_
4.d	love
8A	you'll
8G	ne-
8E	-ver
[8B	know
=61	=61
2B]	_
4A	She
4B	can
=62	=62
4d	reach
8B	you
8B	no
8A	mat-
8G	-ter
8E	how
[8B	far
=63	=63
2B]	_
4r	.
8e	Where-
[8e	-e-
=64	=64
8e]	_
8d	-ver
8B	you
4d	are
16B	_
16A	_
4G	_
=65	=65
4.B	Two
[8A	hearts
2A]	_
=66	=66
2r	.
8G	liv-
8G	-ing
4F#	in
=67	=67
2A	just
4.A	one
[8B	mind
=68	=68
2B]	_
6G	beat-
6A	-ing
6B	to
=69	=69
4.B	ge-
[8A	-ther
2A]	_
=70	=70
2r	.
4G	'till
4F#	the
=71	=71
2A	end
4.d	of
[8B	time
=72	=72
2B]	_
6G	You
6A	know
6B	we're
=73	=73
4.B	two
[8A	hearts
2A]	_
=74	=74
2r	.
8G	liv-
8G	-ing
4F#	in
=75	=75
2A	just
4.A	one
[8B	mind
=76	=76
4.B]	_
8E	To-
8G	-ge-
8A	-ther
4B	for
=77	=77
4.B	e-
[8A	-ver
2A]	_
=78	=78
2r	.
4G	'till
4F#	the
=79	=79
2A	end
4.d	of
8B	time
=80	=80
8A	_
4.G	_
2r	.
=81	=81
1r	.
=82	=82
1r	.
=83	=83
2r	.
4r	.
8g-	she
[8g-	knows
=84	=84
8g-]	_
8r	.
4r	.
4r	.
4b-	there'll
=85	=85
4a-	al-
4a-	-ways
4.f	be
8B-	a
=86	=86
8d-	spe-
4d-	-cial
4B-	place
8d-	in
8a-	my
16a-	heart
16a	_
=87	=87
16a-	_
16g-	_
8a-	_
2r	.
8e-	for
8g-	her
=88	=88
4e-	_
4r	.
2r	.
=89	=89
4r	.
8e-	she
4.g-	knows
8e-	she
[8g-	knows
=90	=90
4g-]	_
8e-	she
4g-	knows
8a-	_
4r	.
=91	=91
4.r	.
4b-	Yeah
8r	.
8g-	she
[8g-	knows
=92	=92
8g-]	_
8r	.
4r	.
4r	.
4b-	no
=93	=93
4a-	mat-
4a-	-ter
2f	how
=94	=94
4d-	far
8d-	a-
4.B-	-part
8a-	we
16a-	are
16a	_
=95	=95
16a-	_
16g-	_
8a-	_
2r	.
8e-	she
8g-	knows
=96	=96
4e-	_
4r	.
2r	.
=97	=97
4r	.
8r	.
8e	I'm
8g	al-
8g	-ways
4a	right
=98	=98
4b	there
8a	be-
4a	-side
8g	her
4e	We're
=99	=99
4.g	two
8g	hearts
2e	_
=100	=100
4.r	.
8B	be-
8e	-liev-
8d	-ing
4B	in
=101	=101
2d	just
4.d	one
[8d	mind
=102	=102
2d]	_
6e	Beat-
6g	-ing
6g	to-
=103	=103
2a	-ge-
8g	-ther
4.e	_
=104	=104
4.r	.
8d	un-
4e	-til
4g	the
=105	=105
2a	end
4.a	of
[8g	time
=106	=106
2g]	_
6b	You
6a	know
6g	we're
=107	=107
4.g	two
16g	hearts
16f#	_
2e	_
=108	=108
4.r	.
8d	be-
8e	-liev-
8d	-ing
4B	in
=109	=109
2d	just
8e	liv-
8e	-ing
8g	in
[8g	just
=110	=110
8g]	_
4a	one
4g	mind
8r	.
4r	.
=111	=111
4r	.
8r	.
8g	to-
8b	-geth-
8a	-er
8g	for-
[8g	-ev-
=112	=112
8g]	_
4.e	-er
4d	'till
4d	the
=113	=113
2a	end
4.dd	of
16b	time
16a	_
=114	=114
2g	_
6e	You
6g	know
6g	we're
=115	=115
4.g	two
16g	hearts
16f#	_
2e	_
=116	=116
2r	.
8e	liv-
8d	-ing
4B	in
=117	=117
2d	just
8d	liv-
8d	-ing
8d	in
[8d	just
=118	=118
8d]	_
4d	one
4.d	mind
8r	.
[8d	just
=119	=119
8d]	_
4e	one
2e	mind
[8A	just
=120	=120
8A]	_
4G	one
8B	mind
8A	_
8G	_
4E	_
=121	=121
2r	.
4d	'till
8d	the
[8d	end
=122	=122
8d]	_
4d	of
[8d	time
2d]	_
=123	=123
4.e	Two
[8d	hearts
2d]	_
=124	=124
1r	.
=125	=125
1r	.
=126	=126
1r	.
=127	=127
1r	.
=128	=128
1r	.
=129	=129
1r	.
=130	=130
1r	.
=131	=131
1r	.
*-	*-
!!!ENC: Nathaniel Condit-Schultz